icons/actions/24/messagebox_warning.svg

<?xml version="1.0"?>
<!-- Created with Inkscape (http://www.inkscape.org/) -->
<svg xmlns:dc="http://purl.org/dc/elements/1.1/" xmlns:cc="http://creativecommons.org/ns#" xmlns:rdf="http://www.w3.org/1999/02/22-rdf-syntax-ns#" xmlns:svg="http://www.w3.org/2000/svg" xmlns="http://www.w3.org/2000/svg" xmlns:xlink="http://www.w3.org/1999/xlink" xmlns:sodipodi="http://sodipodi.sourceforge.net/DTD/sodipodi-0.dtd" xmlns:inkscape="http://www.inkscape.org/namespaces/inkscape" width="24" height="24" id="svg3869" version="1.1" inkscape:version="0.91 r13725" sodipodi:docname="messagebox_warning.svg">
  <defs id="defs3871">
    <style type="text/css" id="current-color-scheme">
      .ColorScheme-Text {
        color:#4d4d4d;
      }
      .ColorScheme-Background {
        color:#eff0f1;
      }
      .ColorScheme-Highlight {
        color:#3daee9;
      }
      .ColorScheme-ViewText {
        color:#31363b;
      }
      .ColorScheme-ViewBackground {
        color:#fcfcfc;
      }
      .ColorScheme-ViewHover {
        color:#93cee9;
      }
      .ColorScheme-ViewFocus{
        color:#3daee9;
      }
      .ColorScheme-ButtonText {
        color:#31363b;
      }
      .ColorScheme-ButtonBackground {
        color:#eff0f1;
      }
      .ColorScheme-ButtonHover {
        color:#93cee9;
      }
      .ColorScheme-ButtonFocus{
        color:#3daee9;
      }
      </style>
    <linearGradient gradientTransform="translate(0,-1.9999941)" inkscape:collect="always" xlink:href="#linearGradient4021-3" id="linearGradient4123" gradientUnits="userSpaceOnUse" x1="3" y1="1045.3622" x2="15" y2="1045.3622"/>
    <linearGradient id="linearGradient4021-3">
      <stop id="stop4023-0" offset="0" style="stop-color:#b3b3b3;stop-opacity:1;"/>
      <stop id="stop4025-2" offset="1" style="stop-color:currentColor;stop-opacity:1;" class="ColorScheme-Text"/>
    </linearGradient>
    <clipPath id="clipPath4160" clipPathUnits="userSpaceOnUse">
      <rect y="1023.3622" x="7" height="1" width="1" id="rect4162" style="opacity:1;fill:#f2f2f2;fill-opacity:1;stroke:none;stroke-opacity:1"/>
    </clipPath>
    <clipPath id="clipPath4160-8" clipPathUnits="userSpaceOnUse">
      <rect y="1023.3622" x="7" height="1" width="1" id="rect4162-9" style="opacity:1;fill:#f2f2f2;fill-opacity:1;stroke:none;stroke-opacity:1"/>
    </clipPath>
  </defs>
  <sodipodi:namedview id="base" pagecolor="#ffffff" bordercolor="#666666" borderopacity="1.0" inkscape:pageopacity="0.0" inkscape:pageshadow="2" inkscape:zoom="22.627416" inkscape:cx="5.4926209" inkscape:cy="10.264796" inkscape:document-units="px" inkscape:current-layer="layer1" showgrid="true" fit-margin-top="0" fit-margin-left="0" fit-margin-right="0" fit-margin-bottom="0" inkscape:window-width="1366" inkscape:window-height="709" inkscape:window-x="-4" inkscape:window-y="0" inkscape:window-maximized="1" inkscape:showpageshadow="false" inkscape:snap-bbox="true" inkscape:object-nodes="true">
    <inkscape:grid type="xygrid" id="grid4132"/>
    <sodipodi:guide position="4,18" orientation="18,0" id="guide4138"/>
    <sodipodi:guide position="5,3" orientation="0,18" id="guide4140"/>
    <sodipodi:guide position="20,2.0000174" orientation="-18,0" id="guide4142"/>
    <sodipodi:guide position="2,21" orientation="0,-18" id="guide4144"/>
    <sodipodi:guide position="3,19.000017" orientation="16,0" id="guide4146"/>
    <sodipodi:guide position="2,4" orientation="0,16" id="guide4148"/>
    <sodipodi:guide position="21,20" orientation="-16,0" id="guide4150"/>
    <sodipodi:guide position="2,20" orientation="0,-16" id="guide4152"/>
  </sodipodi:namedview>
  <metadata id="metadata3874">
    <rdf:RDF>
      <cc:Work rdf:about="">
        <dc:format>image/svg+xml</dc:format>
        <dc:type rdf:resource="http://purl.org/dc/dcmitype/StillImage"/>
        <dc:title/>
      </cc:Work>
    </rdf:RDF>
  </metadata>
  <g inkscape:label="Capa 1" inkscape:groupmode="layer" id="layer1" transform="translate(-326,-532.3622)">
    <g transform="translate(327,-497)" id="layer1-8" inkscape:label="Capa 1">
      <path id="rect4139" transform="translate(0,1030.3622)" d="m 4,3 0,16 1,0 7,0 6,0 0,-1 0,-5 L 18,3 17,3 5,3 4,3 Z m 1,1 12,0 0,9 0,5 -5,0 -7,0 0,-14 z" style="fill:currentColor;fill-opacity:1;stroke:none" inkscape:connector-curvature="0" class="ColorScheme-Text"/>
      <path id="rect4158" d="m 14,1041.3622 0,4.0001 1,0 0,-4.0001 -1,0 z m 0,5 0,1 1,0 0,-1 -1,0 z" style="fill:#da4453;fill-opacity:1;stroke:none" inkscape:connector-curvature="0"/>
    </g>
  </g>
</svg>

<svg xmlns="http://www.w3.org/2000/svg" viewBox="0 0 24 24">
  <defs id="defs3051">
    <style type="text/css" id="current-color-scheme">
      .ColorScheme-Text {
        color:#4d4d4d;
      }
      </style>
  </defs>
  <a transform="translate(1,1)">
 <path 
     style="fill:currentColor;fill-opacity:1;stroke:none" 
     d="M 4 3 L 4 19 L 5 19 L 12 19 L 18 19 L 18 18 L 18 13 L 18 3 L 17 3 L 5 3 L 4 3 z M 5 4 L 17 4 L 17 13 L 17 18 L 12 18 L 5 18 L 5 4 z "
     class="ColorScheme-Text"
     />
    <path
       style="fill:#da4453;fill-opacity:1;stroke:none"
       d="M 14 11 L 14 15 L 15 15 L 15 11 L 14 11 z M 14 16 L 14 17 L 15 17 L 15 16 L 14 16 z "/>
</a>
</svg>
